X:1
T:Title
%%score 1 2
L:1/8
Q:1/4=100
M:6/8
K:A
V:1 treble nm="Grand Piano, Soprano"
V:2 bass nm="Choir Pad, Outside the Fold"
V:1
 [CE]2 [CE] [DF][CE][A,C] | [CE]2 [CA] [Ec]3 | [Ec]3 [DB]2 [DG] | [CA]2 [DF] [CE]3 | %4
w: By~Edward~Willet,~1891 * * * *||||
 [CE]2 [CE] [DF][CE][A,C] | [CE]2 [CA] [Ec]3 | [DB]3 [Ec]2 [DB] | [CA]6 | [EB]3 [EA]2 [EB] | %9
w: |||||
 [Ec]6 | [DB]3 [FA]2 [DF] | [CE]6 | [CE]2 [CE] [DF][CE][A,C] | [CE]2 [CA] [Ec]3 | %14
w: |||||
 [DB]3 [Ec]2 [DB] | [CA]6- | [CA]3 z3 |] %17
w: |||
V:2
 [A,,A,]2 [A,,A,] [A,,A,]2 [A,,E,] | [A,,A,]2 [A,,A,] [A,,A,]3 | [E,A,]3 [E,G,]2 [E,B,] | %3
 [A,,A,]2 [A,,A,] [A,,A,]3 | [A,,A,]2 [A,,A,] [A,,A,]2 [A,,E,] | [A,,A,]2 [A,,A,] [A,,A,]3 | %6
 [E,G,]3 [E,G,]2 [E,G,] | [A,,A,]6 | [E,G,]3 [C,A,]2 [E,G,] | A,6 | [D,F,]3 [D,A,]2 [D,A,] | %11
 [A,,A,]6 | [A,,A,]2 [A,,A,] [A,,A,]2 [A,,E,] | [A,,A,]2 [A,,A,] [A,,A,]3 | %14
 [E,G,]3 [E,G,]2 [E,G,] | [A,,A,]6- | [A,,A,]3 z3 |] %17

